X:19077
T:Straw Bear
T:Whittlesea Straw Bear Tune
R:March
C:Trad.
O:England; Cambridgeshire
Z:Paul Hardy's Session Tunebook 2022 (see www.paulhardy.net). Creative Commons cc by-nc-sa licenced.
M:2/4
L:1/8
Q:1/4=80
K:G
"G"GG FG|D3 G|"D" GF FE|F4|A2 GA|D4|A2 GA|"G"B4|
"C"E3 F/G/|d c-c D|"G"B A-A G|"D"F4|"G"B>AGF|"C" EFGB|"G"Hd2 "C"c2|"D"BA F/E/D:|"Em""_Out"E4|]

